src/pos-icons/phone-off.svg

<svg height="24" viewBox="0 0 24 24" width="24" xmlns="http://www.w3.org/2000/svg"><path d="m20.22 2.5-17.72 17.72 1.27 1.28 4.88-4.88c3.11 2.81 7.16 4.38 11.35 4.38a1 1 0 0 0 1-1v-3.5a1 1 0 0 0 -1-1c-1.25 0-2.45-.2-3.57-.57-.35-.11-.74-.03-1.02.25l-2.2 2.2c-1.15-.58-2.21-1.32-3.15-2.17l11.44-11.44zm-16.22.5a1 1 0 0 0 -1 1c0 3.57 1.14 7.05 3.24 9.94l1.42-1.44c-.38-.53-.73-1.11-1.04-1.71l2.2-2.2c.28-.28.36-.67.25-1.02-.37-1.12-.57-2.32-.57-3.57a1 1 0 0 0 -1-1z"/></svg>

<?xml version="1.0" encoding="UTF-8"?><!DOCTYPE svg PUBLIC "-//W3C//DTD SVG 1.1//EN" "http://www.w3.org/Graphics/SVG/1.1/DTD/svg11.dtd"><svg xmlns="http://www.w3.org/2000/svg" xmlns:xlink="http://www.w3.org/1999/xlink" version="1.1" id="mdi-phone-off" width="24" height="24" viewBox="0 0 24 24"><path d="M20.22,2.5L2.5,20.22L3.77,21.5L8.65,16.62C11.76,19.43 15.81,21 20,21A1,1 0 0,0 21,20V16.5A1,1 0 0,0 20,15.5C18.75,15.5 17.55,15.3 16.43,14.93C16.08,14.82 15.69,14.9 15.41,15.18L13.21,17.38C12.06,16.8 11,16.06 10.06,15.21L21.5,3.77L20.22,2.5M4,3A1,1 0 0,0 3,4C3,7.57 4.14,11.05 6.24,13.94L7.66,12.5C7.28,11.97 6.93,11.39 6.62,10.79L8.82,8.59C9.1,8.31 9.18,7.92 9.07,7.57C8.7,6.45 8.5,5.25 8.5,4A1,1 0 0,0 7.5,3H4Z" /></svg>
